X: 1
T: the Church of Dromore
O: O'Neill's #270
N: "Moderate"
N: "Collected by F.O'Neill"
Z: 1997 by John Chambers <jc:trillian.mit.edu>
M: 6/8
L: 1/8
K: Ador
D \
| "Am"EAA ABc | "G"BAB G2A | Bee dBG | BAB GED | "Am"EAA ABc |
| "G"BAB G2A | Bee dBG | "Am"BAA A2 :: d | "C"gfg "G"edB | "Am"BAA A2d |
| "C"gfg edc | "G"BAB GED | "Am"EAA ABc | "G"BAB G2A | Bee dBG | "Am"BAA A2 :|
